apps/site/public/icons/technologies/cloudflare-d1.svg

<svg width="48" height="48" viewBox="0 0 48 48" fill="none" xmlns="http://www.w3.org/2000/svg">
<path d="M16.3701 16.1306L18.817 17.5437V20.3701L16.3701 21.7833L13.9233 20.3701V17.5437L16.3701 16.1306ZM13.5114 37.7725L16.3701 34.9139L19.2288 37.7725L16.3701 40.6312L13.5114 37.7725ZM16.3701 25.9017C16.849 25.9017 17.3149 26.0439 17.7187 26.3104C18.1168 26.5768 18.4277 26.9548 18.607 27.4005C18.7905 27.8433 18.8386 28.3304 18.7451 28.8005C18.6517 29.2705 18.421 29.7023 18.0821 30.0412C17.7429 30.3803 17.3117 30.6105 16.8385 30.7042C16.3694 30.797 15.8833 30.749 15.4415 30.5661C14.9992 30.3826 14.6203 30.0739 14.3513 29.6778C14.0845 29.2787 13.9422 28.8093 13.9427 28.3292C13.9427 27.6864 14.1978 27.0694 14.6525 26.6172C15.1065 26.1631 15.7223 25.9078 16.3645 25.9074L16.3701 25.9017ZM5.62988 7.24764L10.8143 3.29879L11.7914 3H35.21L36.1709 3.31494L41.5087 7.2638L42.1709 8.56393V39.2503L41.7268 40.3647L37.8264 44.4912L36.6474 45H11.0485L9.94213 44.5639L5.51682 40.4374L5 39.2503V8.56393L5.62988 7.24764ZM8.22207 27.7591L11.8318 31.7483H11.877V34.9785H10.3992L8.21884 32.5559V38.5236L11.659 41.7537H35.8851L38.8729 38.5962V32.362L35.9093 34.9785H20.8891V31.7483H34.7787L38.9699 28.0256V22.0175L36.0062 24.642H20.9052V21.4118H34.7949L38.986 17.6972V12.109L36.0223 14.7416H10.5042L8.29152 12.4805V17.4226L11.9012 21.4118H11.9464V24.642H10.4686L8.28829 22.2194L8.22207 27.7591ZM34.6285 6.19785H12.3405L9.05384 8.70929L11.7995 11.5195H34.7335L37.9637 8.64468L34.6285 6.19785Z" fill="#F38020"/>
</svg>

<svg xmlns="http://www.w3.org/2000/svg" width="48" height="48" fill="none" viewBox="0 0 48 48"><path fill="#f38020" d="m16.37 16.13 2.447 1.414v2.826l-2.447 1.413-2.447-1.413v-2.826zm-2.859 21.643 2.86-2.86 2.858 2.86-2.859 2.858zm2.86-11.871c.478 0 .944.142 1.348.408.398.267.709.645.888 1.09a2.422 2.422 0 0 1-3.165 3.166 2.46 2.46 0 0 1-1.09-.888 2.422 2.422 0 0 1 2.012-3.77zM5.63 7.248l5.184-3.95.977-.298H35.21l.96.315 5.339 3.949.662 1.3V39.25l-.444 1.115-3.9 4.126-1.18.509H11.05l-1.107-.436-4.425-4.127L5 39.25V8.564zm2.592 20.511 3.61 3.99h.045v3.23h-1.478l-2.18-2.423v5.968l3.44 3.23h24.226l2.988-3.158v-6.234l-2.964 2.616H20.89v-3.23h13.89l4.19-3.722v-6.009l-2.963 2.625h-15.1v-3.23h13.889l4.191-3.715V12.11l-2.964 2.633H10.504L8.292 12.48v4.943l3.61 3.989h.044v3.23H10.47l-2.18-2.423zM34.63 6.198H12.34L9.054 8.709l2.746 2.81h22.933l3.23-2.874z"/></svg>
